!!!COM:	Pierre de la Rue
**kern	**kern
*part2	*part1
*staff2	*staff1
*clefF4	*clefGv2
*k[]	*k[]
*M2/1	*M2/1
=1-	=1-
0E	1r
.	1c
=2	=2
0E	1B
.	1G
=3	=3
1r	4A
.	4G
.	4A
.	4B
1F	2c
.	[2d
=4	=4
2E	2d]
2C	2.c
1D	.
.	4B
.	2B
=5	=5
1C	0c
2r	.
[2E	.
=6	=6
2E]	1r
2D	.
2E	2r
[2G	[2B
=7	=7
2G]	2B]
4F	2A
4E	.
[1D	2B
.	[2d
=8	=8
1D]	2d]
.	4c
.	4B
2r	1A
2C	.
=9	=9
2E	1G
2F	.
[1G	2r
.	2G
=10	=10
2G]	2B
4F	2c
4E	.
1D	1d
=11	=11
2r	1.e
2C	.
2E	.
2F	4d
.	4c
=12	=12
1G	2B
.	2d
2.A	2c
.	[2B
4G	.
=13	=13
2E	2B]
2G	2.e
1F	.
.	4d
.	2d
=14	=14
1E	2.e
.	4d
2r	2c
2E	[2B
=15	=15
1G	2B]
.	4A
.	4G
2F	2A
[2E	[2c
=16	=16
2E]	2c]
4D	1B
4C	.
2D	.
[2F	2G
=17	=17
2F]	4A
.	4G
1E	4F
.	4E
.	1F
2D	.
=18	=18
0E	2r
.	2E
.	2G
.	2A
=19	=19
1r	2B
.	2c
2r	[1d
2BB	.
=20	=20
2.D	2d]
.	4c
4E	4B
2F	2A
2G	2B
=21	=21
1.A	2c
.	2d
.	[1e
4G	.
4F	.
=22	=22
2E	2e]
2F	4d
.	4c
[1G	2B
.	2c
=23	=23
2G]	1.d
4F	.
4E	.
2D	.
[2G	4c
.	4B
=24	=24
2G]	1A
2F	.
1G	2r
.	[2G
=25	=25
2r	4G]
.	4A
2.D	4B
.	4c
.	1d
4E	.
4F	.
4G	.
=26	=26
2.A	2c
.	2.B
4F	.
4G	.
4A	4c
[2F	4A
.	4B
=27	=27
4F]	2.G
4G	.
4E	.
4F	4A
2.D	4F
.	4G
.	[2E
4E	.
=28	=28
2C	2E]
2D	2.A
1BB	.
.	4G
.	2G
=29	=29
0AA	0A
==	==
*-	*-
